X: 29
T:Talking Dog
M:6/8
L:1/8
Q:120
C:Peter Cape
K:D
f2f|&quot;D&quot;f3d3|d2f2-f2|&quot;A&quot;f2ee2d|e6|e2ee2e|c3-c2A|&quot;D&quot;d2Ad2e|!
f3-f2f|&quot;G&quot;g3g3|b3-b2b|&quot;D&quot;a2ba2g|f3-f2d|&quot;A&quot;e3e2d|c3-c2A|&quot;D&quot;d2ef2e|!
d3&quot;Chorus:&quot;c2d|&quot;A&quot;e3A2A|A2A-A2A|&quot;D&quot;f2ef2e|d3-d2d|&quot;A&quot;e2ee2d|!
c2AA2A|&quot;D&quot;d2ef2e|d3-d3|&quot;G&quot;z6|&quot;A&quot;z6|&quot;D&quot;z6|z3|
